dist/img/svg/instagram-icon.svg

<svg width="24" height="24" viewBox="0 0 24 24" fill="none" xmlns="http://www.w3.org/2000/svg">
<path d="M15.2404 12C15.2404 10.2 13.8004 8.75999 12.0004 8.75999C10.2004 8.75999 8.76039 10.2 8.76039 12C8.76039 13.8 10.2004 15.24 12.0004 15.24C13.8004 15.24 15.2404 13.8 15.2404 12ZM16.9204 12C16.9204 14.76 14.7604 16.92 12.0004 16.92C9.24039 16.92 7.08039 14.76 7.08039 12C7.08039 9.23999 9.24039 7.07999 12.0004 7.07999C14.7604 7.07999 16.9204 9.23999 16.9204 12ZM18.2404 6.83999C18.2404 7.55999 17.7604 8.03999 17.0404 8.03999C16.3204 8.03999 15.8404 7.55999 15.8404 6.83999C15.8404 6.11999 16.3204 5.63999 17.0404 5.63999C17.7604 5.63999 18.2404 6.23999 18.2404 6.83999ZM12.0004 4.07999C10.5604 4.07999 7.56039 3.95999 6.36039 4.43999C5.52039 4.79999 4.80039 5.51999 4.56039 6.35999C4.08039 7.55999 4.20039 10.56 4.20039 12C4.20039 13.44 4.08039 16.44 4.56039 17.64C4.80039 18.48 5.52039 19.2 6.36039 19.44C7.56039 19.92 10.6804 19.8 12.0004 19.8C13.3204 19.8 16.4404 19.92 17.6404 19.44C18.4804 19.08 19.0804 18.48 19.4404 17.64C19.9204 16.32 19.8004 13.32 19.8004 12C19.8004 10.68 19.9204 7.55999 19.4404 6.35999C19.2004 5.51999 18.4804 4.79999 17.6404 4.55999C16.4404 3.95999 13.4404 4.07999 12.0004 4.07999ZM21.6004 12V15.96C21.6004 17.4 21.1204 18.84 20.0404 20.04C18.9604 21.12 17.5204 21.6 15.9604 21.6H8.04039C6.60039 21.6 5.16039 21.12 3.96039 20.04C3.00039 18.96 2.40039 17.52 2.40039 15.96V12V8.03999C2.40039 6.47999 3.00039 5.03999 3.96039 3.95999C5.16039 2.99999 6.60039 2.39999 8.04039 2.39999H15.9604C17.4004 2.39999 18.8404 2.87999 20.0404 3.95999C21.0004 5.03999 21.6004 6.47999 21.6004 8.03999V12Z" fill="white"/>
</svg>

<svg width="24" height="24" viewBox="0 0 24 24" fill="none" xmlns="http://www.w3.org/2000/svg"><path d="M15.24 12c0-1.8-1.44-3.24-3.24-3.24-1.8 0-3.24 1.44-3.24 3.24 0 1.8 1.44 3.24 3.24 3.24 1.8 0 3.24-1.44 3.24-3.24zm1.68 0c0 2.76-2.16 4.92-4.92 4.92S7.08 14.76 7.08 12 9.24 7.08 12 7.08s4.92 2.16 4.92 4.92zm1.32-5.16c0 .72-.48 1.2-1.2 1.2s-1.2-.48-1.2-1.2.48-1.2 1.2-1.2 1.2.6 1.2 1.2zM12 4.08c-1.44 0-4.44-.12-5.64.36-.84.36-1.56 1.08-1.8 1.92-.48 1.2-.36 4.2-.36 5.64 0 1.44-.12 4.44.36 5.64.24.84.96 1.56 1.8 1.8 1.2.48 4.32.36 5.64.36 1.32 0 4.44.12 5.64-.36a3.31 3.31 0 001.8-1.8c.48-1.32.36-4.32.36-5.64 0-1.32.12-4.44-.36-5.64-.24-.84-.96-1.56-1.8-1.8-1.2-.6-4.2-.48-5.64-.48zM21.6 12v3.96c0 1.44-.48 2.88-1.56 4.08-1.08 1.08-2.52 1.56-4.08 1.56H8.04c-1.44 0-2.88-.48-4.08-1.56a6.153 6.153 0 01-1.56-4.08V8.04c0-1.56.6-3 1.56-4.08C5.16 3 6.6 2.4 8.04 2.4h7.92c1.44 0 2.88.48 4.08 1.56a6.153 6.153 0 011.56 4.08V12z" fill="#fff"/></svg>
